X:241
T:Danza
R:Danza
C:Tradicional
S:Música Tradicional Asturiana, (C) Tello & Tito. Asturies, 2001.
S:http://pagina.de/MusTradAst <telloytito@asturies.org>
N:Xipla
A:Asturies
O:Larón (Cangas del Narcea)
Z:ByD IDEA
M:2/4
L:1/8
Q:1/4=88
K:C
FF|F3/2E/ FF|F3/2E/ DC|
M:3/4
|D6-|D6-|D6|
M:2/4
|z2 EF|F3/2E/ FF|F3/2E/ FF|F3/2E/ GF|D z EE|F3/2E/ FF|F3/2E/ DG|
M:3/4
|D6-|D6-|D6-|D z5|
M:2/4
Q:1/4=152
|e2 z2|e2 z2|e2 e2|
|F2 ED|G2 A2|E2 DC|EF ED|c2 z2|G2 z2|
|F2 ED|C2 EE|F2 EF|(3EFEE2|
|F2 ED|C2 EE|F2 ED|C2 ED|e2 z2|G2 z2|
|F2 ED|C2 EE|F2 EF|(3EFEE2|
|F2 ED|C2 EC|e2 z2|G2 z2|c2 c2|c2 z2|z4|
|F2 ED|G2 ED|E2 z2|F2 DF|(3EFEE2|F2 ED|e2 z2|G2 z2|F2 FF|
|F2 ED|G2 EE|F2 FE|C2 EE|
|F2 ED|G2 EE|F2 ED|G2 A2|ED C2-|C2 EE|F2 ED|G2 DC|c2 z2|
|F2 ED|G2 EE|
"...y sigue"
